X:2
T:What A Wonderful World
C:Weiss & Thiele
L:1/8
M:C
I:linebreak $
K:F
C2 E2 S|:"F" F3 A"Am" c4 |"Bb" z ddd"Am" c4 |"Gm" z BBB"F" A4 | z"Eø" GGG"Dm" F2 F |$
"Db7" (3F2 F2 F2 F4 |"Gm" (3z2 F2 F2"C7" (3E2 F2 G2 ||1"Am" A8 "Ab7" x4|"Gm" z4"Gb7" C2 E2 :|2$
"F" F8 "Bb" x4|"F" z8 ||"Gm" GGGG"C7" G2 CC |"F" BAA^G"F6" A2 F2 |$"Gm" GGGG"C7" G2 CG |
"F" BAA^G"F6" A2 Ac |"Dm" (3d2 d2 d2"Am" c2 Ac |"Dm" (3d2 d2 d2"Am" c4 |$"Dm" z ddd"Am" c3 c |
"Bb" B2 A2"C7" "_D.S. al 3rd end." G4 ||3"F6" F8 |]

